images/mail.svg

<svg width="39" height="39" viewBox="0 0 39 39" fill="none" xmlns="http://www.w3.org/2000/svg">
<path d="M6.5 32.5C5.60625 32.5 4.84142 32.182 4.2055 31.5461C3.56958 30.9102 3.25108 30.1448 3.25 29.25V9.75C3.25 8.85625 3.5685 8.09142 4.2055 7.4555C4.8425 6.81958 5.60733 6.50108 6.5 6.5H32.5C33.3937 6.5 34.1591 6.8185 34.7961 7.4555C35.4331 8.0925 35.7511 8.85733 35.75 9.75V29.25C35.75 30.1437 35.432 30.9091 34.7961 31.5461C34.1602 32.1831 33.3948 32.5011 32.5 32.5H6.5ZM19.5 21.125L32.5 13V9.75L19.5 17.875L6.5 9.75V13L19.5 21.125Z" fill="white"/>
</svg>

<svg xmlns="http://www.w3.org/2000/svg" width="39" height="39" fill="none" viewBox="0 0 39 39"><path fill="#fff" d="M6.5 32.5a3.13 3.13 0 0 1-2.294-.954 3.14 3.14 0 0 1-.956-2.296V9.75q0-1.341.955-2.294A3.14 3.14 0 0 1 6.5 6.5h26q1.341 0 2.296.955.956.955.954 2.295v19.5q0 1.341-.954 2.296a3.12 3.12 0 0 1-2.296.954zm13-11.375L32.5 13V9.75l-13 8.125-13-8.125V13z"/></svg>
